X:1
T:There's No Business Like Show Business
T:There's no business like show business
T:(from Annie get your gun)
T:Irving Berlin
C:Irving Berlin
Z:All Rights Reserved
L:1/4
M:4/4
K:C
V:1 treble 
%%MIDI program 4
V:1
 z2 z G |:"C" c3 C- | C C C2 | G3 C- | C C C2 | G3 C- | C C C2 | E4- | E4 |"G7" B, C D E | %10
w: There's|no bus-|* 'ness like|show bus-|* 'ness like|no bus-|* 'ness I|know|_|ev- ry- thing a-|
 F G A B |"C" c2 c2- | c4 |"G7" B, C D E | F G A B |1"C" c4- | c4 |"G7" B, C D E | F G A B | %19
w: bout it is ap-|peal- ing|_|ev- ry- thing that|traf- fic will al-|low|_|no- where could you|get that hap- py|
 c2 c2- |"Am7" c A B c |"D7" d2 d2- | d B A B |"Dm7" A4- |"G7" A2 G2 :|2"F" A4- ||"A7" A4 || z4 |: %28
w: feel- ing|_ when you are|steal- ing|_ that ex- tra|bow|_ there's|low|_||
"Dm" D E F G |"G7" A B c d |"C" e2 e ^c- |"A7" c3 A |1"D" d2 d B- |"G7" B A G2 |"C" c2 c A- | %35
w: e- ven with a|tur- key that you|know will fold|_ you|may be strand-|* ed out|in the cold|
"A7" A4 :|2"D" d3 B- |"G7" B c d2 |"C" c4- | c3 z |] %40
w: _|go on|_ with the|show.|_|

